X:1
T:Vespers Suffrages (Ancient)
C:Ancient liturgical text; chant setting traditional
S:Traditional Lutheran Evening Prayer; public domain
M:C
L:1/4
K:C
%% Minister: Save Your people, O Lord
G G G G | G G G G | G G G | F E D2 ||
%% People: And bless Your heritage
E E E E | E E | D2 ||
%% Minister: Day by day we bless You
G G G G | G G G G | G G G | A G ||
%% People: We praise Your name forever
G G G G | G G G G | G G | F E D2 ||
%% Minister: Lord, keep us this night without sin
G G G G | G G G G | G G G G | G G G | F E D2 ||
%% People: Have mercy on us, O Lord, have mercy on us
E E E E | E E E E | E E E | D2 ||
%% Minister: Show us Your mercy, O Lord
G G G G | G G G G | G G G | A G ||
%% People: And grant us Your salvation
G G G G | G G G G | G G | F E D2 ||
%% Minister: O Lord, hear our prayer
G G G G | G G G | F E D2 ||
%% People: And let our cry come to You
E E E E | E E E E | E E | D2 ||

## Musiquik
&0VVVV.VVVV.VVV.UTc)TTTT.TT.c)VVVV.VVVV.VVV.WV)VVVV.VVVV.VV.UTc)VVVV.VVVV.VVVV.VVV.UTc)TTTT.TTTT.TTT.c)VVVV.VVVV.VVV.WV)VVVV.VVVV.VV.UTc)VVVV.VVV.UTc)TTTT.TTTT.TT.c)

#Lyrics
Save Your people, O Lord, and bless Your heritage. Govern and uphold them now and always. Day by day we bless You. We praise Your name forever. Lord, keep us this night without sin. Have mercy on us, O Lord, have mercy on us. Show us Your mercy, O Lord. And grant us Your salvation. O Lord, hear our prayer. And let our cry come to You.

#Citations and References

Words: Ancient liturgical suffrages; public domain.
Music: 'Suffrages' Traditional versicle tones; ancient, public domain.
Setting: Lutheran Service Book (LSB), Evening Prayer (Vespers); traditional.
copyright: public domain.

https://openhymnal.org
